icons/knife-blood-line.svg

<svg xmlns="http://www.w3.org/2000/svg" width="24" height="24" fill="none"><g clip-path="url(#a)"><g><path fill="#121212" d="M4.34163 1.40796L22.3726 19.44C22.654 19.7212 22.8122 20.1027 22.8123 20.5006C22.8123 20.8985 22.6544 21.2801 22.3731 21.5615C22.0919 21.8429 21.7103 22.001 21.3125 22.0011C20.9146 22.0012 20.533 21.8432 20.2516 21.562L15.6556 16.965L12.1196 20.5L7.99963 16.38V19C7.99963 19.2652 7.89427 19.5195 7.70673 19.7071C7.5192 19.8946 7.26484 20 6.99963 20C6.73441 20 6.48006 19.8946 6.29252 19.7071C6.10499 19.5195 5.99963 19.2652 5.99963 19V15C5.99935 14.7451 5.90175 14.4999 5.72678 14.3146C5.55181 14.1293 5.31268 14.0177 5.05823 14.0028C4.80379 13.9878 4.55325 14.0706 4.3578 14.2342C4.16234 14.3978 4.03673 14.6299 4.00663 14.883L3.99963 15V16C3.99963 16.2652 3.89427 16.5195 3.70674 16.7071C3.5192 16.8946 3.26484 17 2.99963 17C2.73441 17 2.48006 16.8946 2.29252 16.7071C2.10498 16.5195 1.99963 16.2652 1.99963 16V7.21396C1.95809 5.12685 2.73644 3.10664 4.16763 1.58696L4.34163 1.40796ZM4.58263 4.47796L4.53163 4.58796C4.2313 5.25142 4.0544 5.96407 4.00963 6.69096L3.99963 6.99996L3.99863 7.11996C4.01066 8.60406 4.57377 10.0307 5.57863 11.123L5.75563 11.308L12.1186 17.671L14.9476 14.843L4.58263 4.47796Z"/></g></g><defs><clipPath id="a"><rect width="24" height="24" fill="white"/></clipPath></defs></svg>

<svg width="24" height="24" fill="none" xmlns="http://www.w3.org/2000/svg"><g clip-path="url(#a)"><path d="m4.342 1.408 18.03 18.032a1.5 1.5 0 1 1-2.12 2.122l-4.596-4.597L12.12 20.5 8 16.38V19a1 1 0 0 1-2 0v-4a1 1 0 0 0-1.993-.117L4 15v1a1 1 0 0 1-2 0V7.214a7.976 7.976 0 0 1 2.168-5.627l.174-.179Zm.24 3.07-.05.11a5.993 5.993 0 0 0-.522 2.103L4 7l-.001.12a5.984 5.984 0 0 0 1.58 4.003l.177.185 6.363 6.363 2.829-2.828L4.583 4.478Z" /></g><defs><clipPath id="a"><path fill="#fff" d="M0 0h24v24H0z"/></clipPath></defs></svg>
